src/icons/conditional-skip-filled.svg

<svg viewBox="0 0 24 24" xmlns="http://www.w3.org/2000/svg"><g fill="none" fill-rule="evenodd"><rect fill="#ffebb7" height="23" rx="4" stroke="#e59c0b" width="23" x=".5" y=".5"/><path d="m17.3333333 16.3333333h1.3333334v-1.3333333h-1.3333334zm-6 0h1.3333334v-1.3333333h-1.3333334zm-5.99999997 0h1.33333334v-1.3333333h-1.33333334zm10.66666667-2.6666666v.6666666 3.3333334h4v-4zm-6 0v.6666666 3.3333334h4v-4zm-6 0v.6666666 3.3333334h4v-4zm8-6.6666667c-2.89466667 0-5.46733333 1.42466667-7.04066667 3.6106667l1.08333334.7786666c1.33266666-1.8513333 3.49866666-3.05599997 5.95733333-3.05599997 1.948 0 3.7053333.76466667 5.0166667 1.99999997h-2.35v1.3333334h4.6666666v-4.6666667h-1.3333333v2.432c-1.5593333-1.49933333-3.67-2.432-6-2.432z" fill="#e59c0b"/></g></svg>

<?xml version="1.0" encoding="UTF-8"?>
<svg viewBox="0 0 24 24" version="1.1" xmlns="http://www.w3.org/2000/svg" xmlns:xlink="http://www.w3.org/1999/xlink">
    <!-- Generator: Sketch 61 (89581) - https://sketch.com -->
    <title>Group</title>
    <desc>Created with Sketch.</desc>
    <g id="Page-1" stroke="none" stroke-width="1" fill="none" fill-rule="evenodd">
        <g id="Skip-4" transform="translate(-487.000000, -548.000000)">
            <g id="Group" transform="translate(487.000000, 548.000000)">
                <rect id="Rectangle" stroke="#E59C0B" fill="#FFEBB7" x="0.5" y="0.5" width="23" height="23" rx="4"></rect>
                <path d="M17.3333333,16.3333333 L18.6666667,16.3333333 L18.6666667,15 L17.3333333,15 L17.3333333,16.3333333 Z M11.3333333,16.3333333 L12.6666667,16.3333333 L12.6666667,15 L11.3333333,15 L11.3333333,16.3333333 Z M5.33333333,16.3333333 L6.66666667,16.3333333 L6.66666667,15 L5.33333333,15 L5.33333333,16.3333333 Z M16,13.6666667 L16,14.3333333 L16,17.6666667 L20,17.6666667 L20,13.6666667 L16,13.6666667 Z M10,13.6666667 L10,14.3333333 L10,17.6666667 L14,17.6666667 L14,13.6666667 L10,13.6666667 Z M4,13.6666667 L4,14.3333333 L4,17.6666667 L8,17.6666667 L8,13.6666667 L4,13.6666667 Z M12,7 C9.10533333,7 6.53266667,8.42466667 4.95933333,10.6106667 L6.04266667,11.3893333 C7.37533333,9.538 9.54133333,8.33333333 12,8.33333333 C13.948,8.33333333 15.7053333,9.098 17.0166667,10.3333333 L14.6666667,10.3333333 L14.6666667,11.6666667 L19.3333333,11.6666667 L19.3333333,7 L18,7 L18,9.432 C16.4406667,7.93266667 14.33,7 12,7 L12,7 Z" id="Fill-1" fill="#E59C0B"></path>
            </g>
        </g>
    </g>
</svg>
